build/Karasa-Jaga/scalable/devices/media-removable-symbolic.svg

<svg height="16" width="16" xmlns="http://www.w3.org/2000/svg"><g fill="#bebebe"><path d="m4.9453147 4.4570311-.015625 8.9794569c0 2.16645 1.365875 2.327184 3.0625 2.327184 1.6966251 0 3.0586993-.160737 3.0625003-2.327184l.01562-8.9794569zm.6621094.6868426h4.7968749l-.01367 8.2905943c-.0016.934258-.200483 1.177812-.5488278 1.373685-.3483448.195872-1.0215882.268676-1.8496095.268676-.8280215 0-1.5008209-.07272-1.8496094-.268676-.3484332-.195754-.5484232-.438204-.5488301-1.369645z" stroke-width="1.017007"/><path d="m5.3906272.236328v3.4791668h5.2187498v-3.4791668zm.8697743.8697917h.8697916v.8697917h-.8697916zm2.609375 0h.8697917v.8697917h-.8697917z" stroke-width=".869792"/></g></svg>

<?xml version="1.0" encoding="UTF-8" standalone="no"?>
<!-- Created with Inkscape (http://www.inkscape.org/) -->

<svg
   xmlns:dc="http://purl.org/dc/elements/1.1/"
   xmlns:cc="http://creativecommons.org/ns#"
   xmlns:rdf="http://www.w3.org/1999/02/22-rdf-syntax-ns#"
   xmlns:svg="http://www.w3.org/2000/svg"
   xmlns="http://www.w3.org/2000/svg"
   xmlns:sodipodi="http://sodipodi.sourceforge.net/DTD/sodipodi-0.dtd"
   xmlns:inkscape="http://www.inkscape.org/namespaces/inkscape"
   id="svg7384"
   height="16"
   width="16"
   version="1.1"
   inkscape:version="0.92.2 (unknown)"
   sodipodi:docname="media-removable-symbolic.svg">
  <defs
     id="defs9">
    <linearGradient
       id="linearGradient4466">
      <stop
         style="stop-color:#bebebe;stop-opacity:1;"
         offset="0"
         id="stop4468" />
      <stop
         id="stop4474"
         offset="0.50676125"
         style="stop-color:#bebebe;stop-opacity:0.34684685" />
      <stop
         style="stop-color:#bebebe;stop-opacity:0"
         offset="1"
         id="stop4470" />
    </linearGradient>
  </defs>
  <sodipodi:namedview
     pagecolor="#ffffff"
     bordercolor="#666666"
     borderopacity="1"
     objecttolerance="10"
     gridtolerance="10"
     guidetolerance="10"
     inkscape:pageopacity="0"
     inkscape:pageshadow="2"
     inkscape:window-width="1366"
     inkscape:window-height="697"
     id="namedview7"
     showgrid="false"
     inkscape:zoom="16.000001"
     inkscape:cx="-11.799711"
     inkscape:cy="11.770643"
     inkscape:window-x="0"
     inkscape:window-y="0"
     inkscape:window-maximized="1"
     inkscape:current-layer="svg7384"
     showguides="true"
     inkscape:guide-bbox="true" />
  <title
     id="title9167">Gnome Symbolic Icon Theme</title>
  <metadata
     id="metadata90">
    <rdf:RDF>
      <cc:Work
         rdf:about="">
        <dc:format>image/svg+xml</dc:format>
        <dc:type
           rdf:resource="http://purl.org/dc/dcmitype/StillImage" />
        <dc:title>Gnome Symbolic Icon Theme</dc:title>
      </cc:Work>
    </rdf:RDF>
  </metadata>
  <path
     style="fill:#bebebe;stroke-width:1.01700747"
     d="m 4.9453147,4.4570311 -0.015625,8.9794569 c 0,2.16645 1.365875,2.327184 3.0625,2.327184 1.6966251,0 3.0586993,-0.160737 3.0625003,-2.327184 l 0.01562,-8.9794569 z m 0.6621094,0.6868426 h 4.7968749 l -0.01367,8.2905943 c -0.0016,0.934258 -0.200483,1.177812 -0.5488278,1.373685 -0.3483448,0.195872 -1.0215882,0.268676 -1.8496095,0.268676 -0.8280215,0 -1.5008209,-0.07272 -1.8496094,-0.268676 C 5.7941491,14.612399 5.5941591,14.369949 5.5937522,13.438508 Z"
     id="rect9463"
     inkscape:connector-curvature="0" />
  <path
     inkscape:connector-curvature="0"
     d="M 5.3906272,0.236328 V 3.7154948 H 10.609377 V 0.236328 Z M 6.2604015,1.1061197 H 7.1301931 V 1.9759114 H 6.2604015 Z m 2.609375,0 H 9.7395682 V 1.9759114 H 8.8697765 Z"
     style="fill:#bebebe;stroke-width:0.86979169"
     id="rect9466-3" />
</svg>
